app/img/partner-12.svg

<svg width="123" height="64" viewBox="0 0 123 64" fill="none" xmlns="http://www.w3.org/2000/svg">
<path d="M53.0991 4.838C56.2118 3.02776 59.3454 1.0187 62.9302 0.317627C55.7529 6.7398 48.2163 12.7565 41.1492 19.3016C38.6868 21.5513 36.2638 23.8403 33.7962 26.0848C34.0348 32.8261 33.0961 39.7793 29.9493 45.8248C27.854 49.8586 24.5683 53.3326 20.4539 55.3364C22.6356 48.8044 24.4791 41.9427 23.9599 35C15.8019 43.7791 8.97335 53.6805 2.33888 63.6264C0.715669 61.8894 0.0810682 59.4644 0.102047 57.1388C0.012888 53.8898 1.22178 50.7768 2.72174 47.949C5.16837 43.4469 8.48035 39.4837 11.9707 35.756C15.3718 32.214 18.9355 28.8263 22.6854 25.6506C22.2921 22.0981 21.5631 18.5325 20.071 15.2626C19.1611 13.3451 17.842 11.3177 15.6786 10.7004C13.468 10.1562 11.2233 11.2549 9.64466 12.746C7.48125 14.8336 6.02848 17.5463 4.96645 20.3323C4.65701 20.1884 4.3502 20.0446 4.04339 19.9007C4.95333 16.3011 6.38512 12.8088 8.43839 9.7063C10.2793 6.95692 12.7731 4.49269 15.9277 3.32075C18.7546 2.27436 22.1033 2.14618 24.7597 3.7236C27.639 5.43705 29.4641 8.42186 30.7229 11.4407C31.6748 13.7479 32.3225 16.1703 32.763 18.6267C39.3188 13.7113 46.0975 9.09416 53.0991 4.838Z" fill="#00F0FF"/>
<path d="M83.914 21.9282C84.5119 18.7393 87.2654 15.9429 90.5931 15.7676C92.7853 15.6891 94.9828 15.7597 97.1803 15.7362C96.9155 17.3084 96.6349 18.878 96.3569 20.4449C94.7835 20.458 93.2101 20.424 91.6394 20.4502C90.6639 20.4214 89.7356 20.9576 89.2032 21.7581C88.5975 22.6188 88.5188 23.6939 88.3326 24.6959C90.6429 24.6985 92.9532 24.6906 95.2634 24.6985C94.9855 26.2628 94.7075 27.8298 94.4426 29.3967C92.1481 29.415 89.851 29.3993 87.5564 29.4046C86.8143 33.8072 86.101 38.2151 85.3353 42.6152C83.7069 42.6125 82.0784 42.6204 80.45 42.6099C81.5959 35.7143 82.7156 28.8134 83.914 21.9282Z" fill="#00F0FF"/>
<path d="M101.701 15.9219C102.905 15.4745 104.544 15.7074 105.186 16.9395C106.009 18.4777 105.013 20.4109 103.521 21.1067C102.231 21.8182 100.253 21.6168 99.5638 20.178C98.7509 18.4829 100.031 16.4738 101.701 15.9219Z" fill="#00F0FF"/>
<path d="M106.4 34.958C107.554 28.5463 108.724 22.1398 109.893 15.7307C111.527 15.7386 113.158 15.7333 114.789 15.7386C114.249 18.7234 113.703 21.7082 113.158 24.693C115.602 24.6982 118.049 24.693 120.495 24.6956C120.246 26.2652 119.989 27.8347 119.735 29.4043C117.257 29.4043 114.779 29.4043 112.303 29.4043C111.954 31.2407 111.624 33.0771 111.262 34.9109C111.131 35.6826 111.018 36.6008 111.582 37.2391C111.949 37.7047 112.547 37.914 113.129 37.9035C114.857 37.9219 116.585 37.8957 118.316 37.9035C118.043 39.4757 117.765 41.0479 117.49 42.6227C115.245 42.5338 112.974 42.8032 110.751 42.4135C109.128 42.11 107.504 41.218 106.757 39.6902C106.036 38.2253 106.104 36.5197 106.4 34.958Z" fill="#00F0FF"/>
<path d="M55.884 24.6959C57.7144 24.6959 59.5421 24.6932 61.3725 24.6985C62.07 26.4015 62.7781 28.1018 63.4835 29.8048C64.834 28.128 66.1058 26.391 67.4301 24.6932C69.3863 24.6985 71.3426 24.6932 73.2988 24.6985C70.9571 27.6022 68.6153 30.5059 66.2815 33.4201C67.6949 36.4807 69.1005 39.544 70.4955 42.6125C68.5786 42.6178 66.6617 42.6178 64.7448 42.6099C64.0184 40.7997 63.313 38.9816 62.5814 37.1714C61.1339 38.979 59.7204 40.8101 58.2782 42.6204C56.2511 42.6099 54.2241 42.6178 52.197 42.6152C54.7223 39.5466 57.245 36.4755 59.7572 33.3965C58.446 30.5059 57.1716 27.5969 55.884 24.6959Z" fill="#00F0FF"/>
<path d="M98.9975 24.6957C100.631 24.6957 102.265 24.6957 103.899 24.6983C102.808 30.6705 101.712 36.6427 100.618 42.615C98.987 42.615 97.3559 42.6202 95.7249 42.6097C96.8053 36.6375 97.9145 30.6679 98.9975 24.6957Z" fill="#00F0FF"/>
<path d="M74.1511 30.5475C75.4911 29.9563 77.2507 30.4795 77.8591 31.8529C78.6458 33.5821 77.3241 35.6984 75.5174 36.028C74.1013 36.4204 72.3601 35.6277 72.0139 34.1419C71.6521 32.6089 72.7377 31.0707 74.1511 30.5475Z" fill="#00F0FF"/>
<path d="M120.571 40.0069C121.536 39.7217 122.509 40.6896 122.197 41.6523C122.029 42.5914 120.768 42.9315 120.063 42.3612C119.218 41.7517 119.504 40.1795 120.571 40.0069ZM121.059 42.2566L121.261 42.2383C122.15 41.7883 121.825 40.1691 120.721 40.3862C119.635 40.6426 119.929 42.356 121.059 42.2566Z" fill="#00F0FF"/>
<path d="M120.472 40.6399C120.705 40.653 121.177 40.6739 121.413 40.687C121.494 41.3305 121.119 41.8328 120.508 42.0107C120.493 41.5529 120.479 41.0977 120.472 40.6399ZM120.805 40.9904C120.933 41.1395 120.933 41.1395 120.805 40.9904V40.9904Z" fill="#00F0FF"/>
<path d="M77.4841 48.2184C78.47 47.826 79.5373 48.1477 80.4814 48.5061C80.3004 48.8043 80.1221 49.0999 79.9412 49.3982C79.0784 48.9691 77.311 48.6709 77.3005 50.0862C77.9849 50.8736 79.3538 50.6093 79.9254 51.5563C80.4158 52.4536 79.8389 53.5392 78.9683 53.9316C77.7882 54.46 76.3748 54.2298 75.3547 53.4607C75.5645 53.1991 75.7717 52.9402 75.9841 52.6838C76.6108 52.9899 77.2769 53.3718 78.0059 53.2201C78.5409 53.1782 79.1938 52.6001 78.8949 52.0377C78.1711 51.4622 77.054 51.5589 76.4509 50.8082C75.8399 49.869 76.4561 48.5401 77.4841 48.2184Z" fill="#00F0FF"/>
<path d="M82.8203 48.3413C83.8588 47.7867 85.1018 48.0797 86.114 48.5506C85.9068 48.8331 85.7075 49.1182 85.5135 49.406C84.6691 48.9325 82.9908 48.718 82.9043 50.0547C83.4995 50.8369 84.7268 50.6146 85.3902 51.3339C85.8544 51.933 85.8413 52.8695 85.2748 53.4005C84.1761 54.5934 82.1805 54.3868 80.969 53.4686C81.184 53.2044 81.4017 52.9454 81.6193 52.6838C82.3221 53.0657 83.1534 53.4712 83.9558 53.1128C84.4226 52.9951 84.4986 52.4614 84.711 52.1057C83.9453 51.6426 83.0275 51.5144 82.2723 51.0488C81.4227 50.2666 81.8763 48.8279 82.8203 48.3413Z" fill="#00F0FF"/>
<path d="M114.396 48.2211C115.387 47.8287 116.473 48.1217 117.409 48.5246C117.228 48.8202 117.044 49.1184 116.861 49.414C116.168 49.1681 115.34 48.7731 114.645 49.2178C114.244 49.4114 114.084 49.9921 114.438 50.3061C115.172 50.7586 116.176 50.7377 116.774 51.4178C117.23 52.1006 117.044 53.0973 116.391 53.5943C115.23 54.5727 113.439 54.3216 112.28 53.4661C112.497 53.2072 112.717 52.9482 112.94 52.6918C113.816 53.2699 115.442 53.6676 115.927 52.4224C115.613 51.3132 114 51.7056 113.386 50.8162C112.744 49.877 113.397 48.5821 114.396 48.2211Z" fill="#00F0FF"/>
<path d="M49.7976 54.1932C50.2014 52.1894 50.5817 50.1803 50.9777 48.1739C52.3229 48.1739 53.6708 48.1739 55.0186 48.1713C54.9846 48.3989 54.9111 48.8566 54.8744 49.0842C53.8727 49.0895 52.8683 49.0921 51.8666 49.0868C51.7617 49.631 51.6542 50.1751 51.5467 50.7192C52.4147 50.7244 53.2827 50.7244 54.1507 50.7244C54.1035 51.0227 54.0563 51.3209 54.009 51.6191C53.1306 51.64 52.2495 51.6452 51.371 51.6426C51.2005 52.4928 51.0301 53.343 50.8649 54.1958C50.5083 54.1932 50.1516 54.1932 49.7976 54.1932Z" fill="#00F0FF"/>
<path d="M56.5291 48.1843C56.8858 48.1791 57.2398 48.1739 57.599 48.1713C57.224 50.1777 56.8149 52.1815 56.4321 54.188C56.0781 54.1906 55.7214 54.1906 55.3674 54.1932C55.7477 52.1894 56.1594 50.1908 56.5291 48.1843Z" fill="#00F0FF"/>
<path d="M59.0492 48.1739C60.5046 48.1713 61.9573 48.1739 63.4101 48.1713C63.376 48.3989 63.3026 48.8566 63.2659 49.0842C62.7099 49.0868 62.154 49.0895 61.5981 49.0921C61.2572 50.7951 60.9425 52.5033 60.6042 54.2037C60.245 54.188 59.8883 54.1723 59.5317 54.1618C59.87 52.4719 60.1978 50.7846 60.5151 49.0921C59.9722 49.0895 59.4294 49.0868 58.8866 49.0842C58.9286 48.8566 59.0098 48.4015 59.0492 48.1739Z" fill="#00F0FF"/>
<path d="M64.6109 48.1713C64.944 48.1739 65.2796 48.1765 65.6126 48.1791C66.2446 49.5499 66.8635 50.9233 67.4955 52.2914C67.7682 50.9206 68.0252 49.5473 68.2874 48.1765C68.6388 48.1739 68.9928 48.1739 69.3468 48.1739C68.9587 50.1777 68.5759 52.1841 68.2009 54.1932C67.8731 54.1932 67.5453 54.1906 67.2175 54.1932C66.5803 52.812 65.9457 51.4334 65.3111 50.0521C65.0488 51.436 64.784 52.8172 64.5165 54.201C64.1704 54.1932 63.8216 54.188 63.4755 54.1854C63.8321 52.1763 64.2359 50.1777 64.6109 48.1713Z" fill="#00F0FF"/>
<path d="M69.9055 54.1879C70.2858 52.1788 70.6765 50.1724 71.0829 48.1686C72.4229 48.1764 73.7629 48.1738 75.1029 48.1712C75.04 48.4773 74.9797 48.7833 74.922 49.0894C73.9334 49.0894 72.9474 49.0894 71.9614 49.0894C71.8591 49.6126 71.7595 50.1332 71.6625 50.659C72.5305 50.659 73.3984 50.659 74.2664 50.6537C74.1982 50.9807 74.1301 51.3103 74.0645 51.64C73.1965 51.64 72.3259 51.64 71.4579 51.64C71.3583 52.1631 71.2613 52.6863 71.1616 53.2095C72.221 53.2095 73.2804 53.2095 74.3425 53.2095C74.2848 53.5365 74.2297 53.8609 74.1773 54.1905C72.7534 54.1905 71.3294 54.1931 69.9055 54.1879Z" fill="#00F0FF"/>
<path d="M91.1359 48.5404C92.1744 47.8184 93.5826 48.0408 94.6184 48.6634C94.4007 48.9354 94.1857 49.2075 93.9707 49.4795C93.2574 49.1395 92.2085 48.7471 91.6368 49.5266C91.2041 50.4945 90.9471 51.6089 91.0284 52.6684C91.524 53.6023 92.7067 53.1183 93.4593 52.8227C93.5721 53.0346 93.8002 53.4532 93.9156 53.6651C92.8221 54.3191 91.1936 54.5545 90.2522 53.5238C89.6281 52.862 89.9611 51.9071 90.087 51.1276C90.302 50.2303 90.3414 49.1525 91.1359 48.5404Z" fill="#00F0FF"/>
<path d="M96.1785 48.1713C96.5299 48.1739 96.8839 48.1765 97.2405 48.1791C96.918 49.8559 96.5718 51.5301 96.2624 53.2096C97.2798 53.2096 98.2999 53.2096 99.32 53.2096C99.2545 53.5366 99.1941 53.8662 99.1338 54.1958C97.7597 54.188 96.3856 54.1932 95.0142 54.1906C95.3787 52.1815 95.7956 50.1777 96.1785 48.1713Z" fill="#00F0FF"/>
<path d="M100.739 52.4222C100.88 50.9913 101.261 49.5943 101.504 48.1765C101.775 48.1765 102.315 48.1739 102.585 48.1713C102.357 49.5917 101.914 50.9808 101.809 52.417C101.937 53.6543 103.88 53.4136 104.124 52.3568C104.546 50.9939 104.693 49.5656 104.997 48.1739C105.357 48.1739 105.721 48.1739 106.083 48.1765C105.779 49.5865 105.572 51.0148 105.239 52.4196C104.976 53.5732 103.788 54.3685 102.619 54.1984C101.657 54.2324 100.615 53.4555 100.739 52.4222Z" fill="#00F0FF"/>
<path d="M106.44 54.1881C106.838 52.1843 107.216 50.1778 107.62 48.1766C108.721 48.2341 109.877 48.0092 110.945 48.3231C112.114 48.9274 111.76 50.5519 110.766 51.1457C110.877 51.2477 111.092 51.4492 111.202 51.5486C111.338 52.4694 111.131 53.5681 110.171 53.9579C108.988 54.4131 107.677 54.1122 106.44 54.1881ZM108.516 49.066C108.412 49.5761 108.309 50.0889 108.207 50.6016C108.716 50.599 109.227 50.6121 109.736 50.565C110.294 50.5519 110.782 49.8874 110.423 49.3799C109.877 48.9719 109.148 49.1262 108.516 49.066ZM107.696 53.2254C108.372 53.1757 109.112 53.3196 109.744 53.0109C110.26 52.7388 110.077 52.1241 110.032 51.6689C109.369 51.6087 108.703 51.5721 108.039 51.5486C107.921 52.1084 107.806 52.6656 107.696 53.2254Z" fill="#00F0FF"/>
</svg>

<svg width="123" height="64" fill="none" xmlns="http://www.w3.org/2000/svg"><path d="M53.1 4.838c3.112-1.81 6.245-3.82 9.83-4.52-7.177 6.422-14.714 12.439-21.78 18.984-2.463 2.25-4.886 4.538-7.354 6.783.239 6.741-.7 13.694-3.847 19.74-2.095 4.034-5.38 7.508-9.495 9.511C22.636 48.804 24.479 41.943 23.96 35 15.802 43.78 8.973 53.68 2.339 63.626.716 61.89.08 59.464.102 57.14c-.09-3.25 1.12-6.362 2.62-9.19 2.446-4.502 5.758-8.465 9.249-12.193 3.4-3.542 6.965-6.93 10.714-10.105-.393-3.553-1.122-7.119-2.614-10.388-.91-1.918-2.229-3.945-4.392-4.563-2.211-.544-4.456.555-6.034 2.046-2.164 2.088-3.617 4.8-4.679 7.586l-.923-.431c.91-3.6 2.342-7.092 4.395-10.195 1.841-2.75 4.335-5.213 7.49-6.385 2.827-1.047 6.175-1.175 8.832.403 2.879 1.713 4.704 4.698 5.963 7.717.952 2.307 1.6 4.73 2.04 7.186a253.005 253.005 0 0120.336-13.79zm30.814 17.09c.598-3.189 3.351-5.985 6.68-6.16 2.191-.079 4.389-.008 6.586-.032-.265 1.572-.545 3.142-.823 4.709-1.573.013-3.147-.021-4.718.005-.975-.029-1.903.508-2.436 1.308-.606.86-.684 1.936-.87 2.938 2.31.002 4.62-.005 6.93.002a572.098 572.098 0 00-.82 4.699c-2.295.018-4.592.002-6.887.008-.742 4.402-1.455 8.81-2.22 13.21-1.63-.003-3.258.005-4.886-.005 1.146-6.896 2.266-13.797 3.464-20.682zm17.787-6.006c1.204-.447 2.843-.215 3.485 1.017.823 1.539-.173 3.472-1.665 4.168-1.29.711-3.268.51-3.957-.929-.813-1.695.467-3.704 2.137-4.256zm4.699 19.036c1.154-6.412 2.324-12.818 3.493-19.227 1.634.008 3.265.002 4.896.008-.54 2.984-1.086 5.97-1.631 8.954 2.444.005 4.891 0 7.337.003-.249 1.57-.506 3.139-.76 4.708h-7.432c-.349 1.837-.679 3.673-1.041 5.507-.131.772-.244 1.69.32 2.328.367.466.965.675 1.547.665 1.728.018 3.456-.008 5.187 0-.273 1.572-.551 3.144-.826 4.719-2.245-.09-4.516.18-6.739-.21-1.623-.303-3.247-1.195-3.994-2.723-.721-1.465-.653-3.17-.357-4.732zM55.884 24.696c1.83 0 3.658-.003 5.489.002.697 1.703 1.405 3.404 2.11 5.107 1.351-1.677 2.623-3.414 3.947-5.112 1.956.005 3.913 0 5.869.005a3341.544 3341.544 0 00-7.018 8.722c1.414 3.06 2.82 6.124 4.215 9.192-1.917.006-3.834.006-5.751-.002-.727-1.81-1.432-3.628-2.164-5.439-1.447 1.808-2.86 3.64-4.303 5.45-2.027-.011-4.054-.003-6.081-.006 2.525-3.068 5.048-6.14 7.56-9.218-1.311-2.891-2.585-5.8-3.873-8.701zm43.114 0c1.633 0 3.267 0 4.901.002-1.091 5.973-2.187 11.945-3.281 17.917-1.631 0-3.262.005-4.893-.005 1.08-5.972 2.19-11.942 3.273-17.914z" fill="#00F0FF"/><path d="M74.151 30.547c1.34-.59 3.1-.067 3.708 1.306.787 1.73-.535 3.845-2.342 4.175-1.416.392-3.157-.4-3.503-1.886-.362-1.533.724-3.071 2.137-3.595zm46.42 9.46c.965-.285 1.938.683 1.626 1.645-.168.94-1.429 1.28-2.134.71-.845-.61-.559-2.183.508-2.355zm.488 2.25l.202-.019c.889-.45.564-2.069-.54-1.852-1.086.257-.792 1.97.338 1.87z" fill="#00F0FF"/><path d="M120.472 40.64c.233.013.705.034.941.047.081.644-.294 1.146-.905 1.324a78.378 78.378 0 01-.036-1.371zm.333.35c.128.15.128.15 0 0zm-43.321 7.228c.986-.392 2.053-.07 2.997.288l-.54.892c-.863-.429-2.63-.727-2.64.688.684.788 2.053.523 2.624 1.47.49.898-.086 1.983-.957 2.376-1.18.528-2.593.298-3.613-.471.21-.262.417-.52.63-.777.626.306 1.292.688 2.02.536.536-.042 1.189-.62.89-1.182-.724-.576-1.841-.48-2.444-1.23-.611-.939.005-2.268 1.033-2.59zm5.336.123c1.039-.554 2.282-.261 3.294.21a24.4 24.4 0 00-.6.855c-.845-.474-2.523-.688-2.61.649.596.782 1.823.56 2.486 1.279.464.599.451 1.535-.115 2.066-1.099 1.193-3.095.987-4.306.069.215-.265.433-.524.65-.785.703.382 1.534.787 2.337.429.467-.118.543-.652.755-1.007-.766-.463-1.683-.592-2.439-1.057-.85-.782-.396-2.221.548-2.708zm31.576-.12c.991-.392 2.077-.1 3.013.304l-.548.889c-.693-.246-1.521-.64-2.216-.196-.401.193-.561.774-.207 1.088.734.453 1.738.432 2.336 1.112.456.683.27 1.68-.383 2.176-1.161.979-2.952.728-4.111-.128.217-.259.437-.518.66-.774.876.578 2.502.976 2.987-.27-.314-1.109-1.927-.716-2.541-1.606-.642-.939.011-2.234 1.01-2.595zm-64.598 5.972c.403-2.004.784-4.013 1.18-6.02 1.345 0 2.693 0 4.04-.002-.033.228-.107.686-.144.913-1.001.005-2.006.008-3.007.003-.105.544-.213 1.088-.32 1.632.868.005 1.736.005 2.604.005l-.142.895c-.878.021-1.76.026-2.638.024-.17.85-.34 1.7-.506 2.553-.357-.003-.713-.003-1.067-.003zm6.732-6.009c.356-.005.71-.01 1.069-.013-.375 2.007-.784 4.01-1.167 6.017-.354.003-.71.003-1.065.005.38-2.004.792-4.002 1.162-6.009zm2.52-.01c1.455-.003 2.907 0 4.36-.003-.034.228-.107.686-.144.913l-1.668.008c-.34 1.703-.655 3.411-.994 5.112-.359-.016-.716-.032-1.072-.042.338-1.69.666-3.377.983-5.07l-1.628-.008c.042-.227.123-.683.162-.91zm5.56-.003l1.003.008c.632 1.37 1.25 2.744 1.883 4.112.272-1.37.53-2.744.791-4.114.352-.003.706-.003 1.06-.003-.388 2.004-.771 4.01-1.146 6.02-.328 0-.656-.003-.983 0-.638-1.382-1.272-2.76-1.907-4.142-.262 1.384-.527 2.765-.795 4.149a69.491 69.491 0 00-1.04-.016c.356-2.009.76-4.007 1.135-6.014zm5.296 6.017c.38-2.01.77-4.016 1.177-6.02 1.34.008 2.68.006 4.02.003a59.49 59.49 0 00-.181.918h-2.96c-.103.524-.203 1.044-.3 1.57.868 0 1.736 0 2.604-.005-.068.327-.136.656-.202.986h-2.606c-.1.523-.197 1.046-.296 1.57h3.18c-.057.326-.112.65-.165.98-1.424 0-2.848.003-4.272-.002zm21.23-5.648c1.038-.722 2.447-.5 3.482.123-.217.272-.432.545-.647.817-.714-.34-1.763-.733-2.334.047-.433.968-.69 2.082-.609 3.141.496.934 1.679.45 2.431.155.113.212.341.63.457.842-1.094.654-2.722.89-3.664-.141-.624-.662-.29-1.617-.165-2.396.215-.898.254-1.975 1.049-2.588zm5.042-.369l1.063.008c-.323 1.677-.67 3.351-.979 5.03h3.058a53.66 53.66 0 00-.186.987c-1.374-.008-2.748-.003-4.12-.005.365-2.01.782-4.013 1.165-6.02zm4.561 4.251c.141-1.43.522-2.828.765-4.245.271 0 .811-.003 1.081-.006-.228 1.42-.671 2.81-.776 4.246.128 1.237 2.071.997 2.315-.06.422-1.363.569-2.791.873-4.183.36 0 .724 0 1.086.002-.304 1.41-.511 2.839-.844 4.244-.263 1.153-1.451 1.948-2.62 1.778-.962.034-2.004-.742-1.88-1.776zm5.701 1.766c.398-2.004.776-4.01 1.18-6.011 1.101.057 2.257-.168 3.325.146 1.169.604.815 2.229-.179 2.823.111.102.326.303.436.403.136.92-.071 2.02-1.031 2.409-1.183.455-2.494.154-3.731.23zm2.076-5.122c-.104.51-.207 1.023-.309 1.536.509-.003 1.02.01 1.529-.037.558-.013 1.046-.678.687-1.185-.546-.408-1.275-.254-1.907-.314zm-.82 4.16c.676-.05 1.416.094 2.048-.215.516-.272.333-.887.288-1.342a36.221 36.221 0 00-1.993-.12c-.118.56-.233 1.117-.343 1.676z" fill="#00F0FF"/></svg>
